public/whatsApp.svg

<svg width="48" height="48" viewBox="0 0 48 48" fill="none" xmlns="http://www.w3.org/2000/svg">
<path fill-rule="evenodd" clip-rule="evenodd" d="M6.99998 24C6.99998 20.6377 7.99701 17.3509 9.865 14.5553C11.733 11.7597 14.388 9.58074 17.4944 8.29405C20.6007 7.00736 24.0188 6.6707 27.3165 7.32665C30.6142 7.9826 33.6433 9.60169 36.0208 11.9792C38.3983 14.3567 40.0174 17.3858 40.6733 20.6835C41.3293 23.9811 40.9926 27.3993 39.7059 30.5056C38.4192 33.612 36.2403 36.267 33.4447 38.135C30.649 40.003 27.3623 41 24 41C20.7837 41.0057 17.6324 40.0941 14.916 38.372C14.6743 38.2192 14.4027 38.1199 14.1195 38.0809C13.8362 38.0419 13.5479 38.0641 13.274 38.146L7.51398 39.864L9.68398 34.79C9.81011 34.4946 9.86324 34.1732 9.83887 33.8529C9.8145 33.5326 9.71335 33.2229 9.54398 32.95C7.87584 30.2632 6.99448 27.1625 6.99998 24ZM24 3C12.402 3 2.99998 12.402 2.99998 24C2.99998 27.676 3.94598 31.136 5.60998 34.146L2.15998 42.214C2.01066 42.5635 1.96401 42.9483 2.02549 43.3233C2.08697 43.6984 2.25404 44.0481 2.50713 44.3317C2.76023 44.6152 3.08886 44.8207 3.45455 44.9242C3.82024 45.0277 4.20785 45.0249 4.57198 44.916L13.572 42.232C16.746 44.0509 20.3417 45.0053 24 45C35.598 45 45 35.598 45 24C45 12.402 35.598 3 24 3ZM28.586 28.364L25.956 30.216C24.5069 29.3823 23.1764 28.3578 22 27.17C20.7371 25.9088 19.6451 24.4873 18.752 22.942L20.422 21.524C20.77 21.2288 21.0065 20.8234 21.0924 20.3752C21.1782 19.927 21.1082 19.4629 20.894 19.06L18.766 15.06C18.6244 14.7944 18.4246 14.5641 18.1816 14.3864C17.9386 14.2087 17.6586 14.0882 17.3626 14.0338C17.0665 13.9793 16.7619 13.9925 16.4716 14.0722C16.1813 14.1519 15.9128 14.2961 15.686 14.494L15.054 15.044C13.536 16.368 12.638 18.544 13.382 20.748C14.579 24.2342 16.5598 27.3994 19.172 30C22.798 33.626 26.482 35.054 28.638 35.61C30.374 36.056 32.016 35.458 33.174 34.514L34.356 33.55C34.6052 33.3468 34.8017 33.0865 34.9289 32.7912C35.0561 32.4958 35.1102 32.1742 35.0867 31.8535C35.0631 31.5328 34.9626 31.2226 34.7936 30.949C34.6246 30.6754 34.3922 30.4466 34.116 30.282L30.76 28.282C30.4281 28.084 30.046 27.9863 29.6598 28.0009C29.2737 28.0155 28.9 28.1416 28.584 28.364H28.586Z" fill="white"/>
</svg>

<svg xmlns="http://www.w3.org/2000/svg" width="48" height="48" fill="none"><path fill="#fff" fill-rule="evenodd" d="M7 24a17 17 0 1 1 7.92 14.37 2 2 0 0 0-1.65-.22l-5.76 1.71 2.17-5.07a2 2 0 0 0-.14-1.84A16.91 16.91 0 0 1 7 24ZM24 3A21 21 0 0 0 5.61 34.15L2.16 42.2a2 2 0 0 0 2.41 2.7l9-2.68A21 21 0 1 0 24 3Zm4.59 25.36-2.63 1.86A18.68 18.68 0 0 1 22 27.17a20.4 20.4 0 0 1-3.25-4.23l1.67-1.42a2 2 0 0 0 .47-2.46l-2.12-4a2 2 0 0 0-3.08-.57l-.64.55a5.32 5.32 0 0 0-1.67 5.7 24.1 24.1 0 0 0 5.8 9.26 20.92 20.92 0 0 0 9.46 5.61 5.15 5.15 0 0 0 4.53-1.1l1.19-.96a2 2 0 0 0-.24-3.27l-3.36-2a2 2 0 0 0-2.18.08Z" clip-rule="evenodd"/></svg>
